contents/svg/zigzag-border.svg

<?xml version="1.0" encoding="UTF-8"?>
<svg width="1591px" height="23px" viewBox="0 0 1591 23" version="1.1" xmlns="http://www.w3.org/2000/svg" xmlns:xlink="http://www.w3.org/1999/xlink">
    <!-- Generator: Sketch 47.1 (45422) - http://www.bohemiancoding.com/sketch -->
    <title>zigzag-border</title>
    <desc>Created with Sketch.</desc>
    <defs></defs>
    <g stroke="none" stroke-width="1" fill="none" fill-rule="evenodd">
        <path d="M1590.7961,0.0992114537 L1590.7961,8.33896834 C1587.20261,12.1688258 1585.54412,14.0854005 1584.10224,16.1461627 C1577.91272,24.9843965 1571.11023,22.8097328 1565.36182,16 C1563.81263,14.1637489 1562.46885,12.1451237 1560.84987,10.3740533 C1558.17154,7.44487407 1557.42953,7.58313607 1555.02443,10.6637451 C1552.68385,13.6620554 1550.52235,16.8980446 1547.73605,19.4288976 C1543.51313,23.2666558 1539.44164,22.9947405 1535.25362,18.9272041 C1532.83404,16.5780668 1530.75813,13.8602309 1528.64865,11.211526 C1525.63585,7.42709753 1524.37899,7.44355729 1521.47483,11.2609053 C1519.29358,14.1281959 1517.12484,17.0448657 1514.61176,19.6086382 C1511.66942,22.6102404 1507.79545,23.0842816 1504.52917,20.4731049 C1501.25236,17.8533692 1498.37717,14.6575418 1495.65999,11.4334036 C1493.80926,9.23635457 1492.66234,8.27642125 1491.37914,8.33765156 C1487.78564,12.1688258 1486.12716,14.0854005 1484.68528,16.1461627 C1478.49575,24.9843965 1471.69326,22.8097328 1465.94486,16 C1464.39566,14.1637489 1463.05189,12.1451237 1461.43291,10.3740533 C1458.75457,7.44487407 1458.01257,7.58313607 1455.60747,10.6637451 C1453.26689,13.6620554 1451.10539,16.8980446 1448.31908,19.4288976 C1444.09617,23.2666558 1440.02468,22.9947405 1435.83666,18.9272041 C1433.41707,16.5780668 1431.34117,13.8602309 1429.23168,11.211526 C1426.21889,7.42709753 1424.96202,7.44355729 1422.05786,11.2609053 C1419.87661,14.1281959 1417.70788,17.0448657 1415.1948,19.6086382 C1412.25245,22.6102404 1408.37848,23.0842816 1405.11221,20.4731049 C1401.8354,17.8533692 1398.96021,14.6575418 1396.24303,11.4334036 C1394.39229,9.23635457 1393.24538,8.27642125 1391.96217,8.33765156 C1388.36868,12.1688258 1386.71019,14.0854005 1385.26832,16.1461627 C1379.07879,24.9843965 1372.2763,22.8097328 1366.52789,16 C1364.9787,14.1637489 1363.63492,12.1451237 1362.01594,10.3740533 C1359.33761,7.44487407 1358.5956,7.58313607 1356.1905,10.6637451 C1353.84993,13.6620554 1351.68843,16.8980446 1348.90212,19.4288976 C1344.6792,23.2666558 1340.60772,22.9947405 1336.4197,18.9272041 C1334.00011,16.5780668 1331.92421,13.8602309 1329.81472,11.211526 C1326.80193,7.42709753 1325.54506,7.44355729 1322.6409,11.2609053 C1320.45965,14.1281959 1318.29091,17.0448657 1315.77784,19.6086382 C1312.83549,22.6102404 1308.96152,23.0842816 1305.69525,20.4731049 C1302.41844,17.8533692 1299.54324,14.6575418 1296.82607,11.4334036 C1294.97533,9.23635457 1293.82842,8.27642125 1292.54521,8.33765156 C1288.95172,12.1688258 1287.29323,14.0854005 1285.85136,16.1461627 C1279.66183,24.9843965 1272.85934,22.8097328 1267.11093,16 C1265.56174,14.1637489 1264.21796,12.1451237 1262.59898,10.3740533 C1259.92065,7.44487407 1259.17864,7.58313607 1256.77354,10.6637451 C1254.43296,13.6620554 1252.27147,16.8980446 1249.48516,19.4288976 C1245.26224,23.2666558 1241.19075,22.9947405 1237.00273,18.9272041 C1234.58315,16.5780668 1232.50724,13.8602309 1230.39776,11.211526 C1227.38496,7.42709753 1226.1281,7.44355729 1223.22394,11.2609053 C1221.04269,14.1281959 1218.87395,17.0448657 1216.36087,19.6086382 C1213.41853,22.6102404 1209.54456,23.0842816 1206.27828,20.4731049 C1203.00147,17.8533692 1200.12628,14.6575418 1197.4091,11.4334036 C1195.55837,9.23635457 1194.41145,8.27642125 1193.12825,8.33765156 C1189.53475,12.1688258 1187.87627,14.0854005 1186.43439,16.1461627 C1180.24486,24.9843965 1173.44237,22.8097328 1167.69397,16 C1166.14477,14.1637489 1164.801,12.1451237 1163.18202,10.3740533 C1160.50368,7.44487407 1159.76168,7.58313607 1157.35658,10.6637451 C1155.016,13.6620554 1152.8545,16.8980446 1150.06819,19.4288976 C1145.84528,23.2666558 1141.77379,22.9947405 1137.58577,18.9272041 C1135.16618,16.5780668 1133.09028,13.8602309 1130.9808,11.211526 C1127.968,7.42709753 1126.71113,7.44355729 1123.80697,11.2609053 C1121.62573,14.1281959 1119.45699,17.0448657 1116.94391,19.6086382 C1114.00156,22.6102404 1110.12759,23.0842816 1106.86132,20.4731049 C1103.58451,17.8533692 1100.70932,14.6575418 1097.99214,11.4334036 C1096.14141,9.23635457 1094.99449,8.27642125 1093.71129,8.33765156 C1090.11779,12.1688258 1088.45931,14.0854005 1087.01743,16.1461627 C1080.8279,24.9843965 1074.02541,22.8097328 1068.277,16 C1066.72781,14.1637489 1065.38404,12.1451237 1063.76505,10.3740533 C1061.08672,7.44487407 1060.34471,7.58313607 1057.93961,10.6637451 C1055.59904,13.6620554 1053.43754,16.8980446 1050.65123,19.4288976 C1046.42832,23.2666558 1042.35683,22.9947405 1038.16881,18.9272041 C1035.74922,16.5780668 1033.67332,13.8602309 1031.56383,11.211526 C1028.55104,7.42709753 1027.29417,7.44355729 1024.39001,11.2609053 C1022.20876,14.1281959 1020.04002,17.0448657 1017.52695,19.6086382 C1014.5846,22.6102404 1010.71063,23.0842816 1007.44436,20.4731049 C1004.16755,17.8533692 1001.29236,14.6575418 998.575178,11.4334036 C996.724443,9.23635457 995.577526,8.27642125 994.294323,8.33765156 C990.700828,12.1688258 989.042343,14.0854005 987.600467,16.1461627 C981.410938,24.9843965 974.608448,22.8097328 968.860041,16 C967.310848,14.1637489 965.967073,12.1451237 964.348091,10.3740533 C961.669758,7.44487407 960.927752,7.58313607 958.522652,10.6637451 C956.182074,13.6620554 954.020578,16.8980446 951.234269,19.4288976 C947.011352,23.2666558 942.939866,22.9947405 938.751844,18.9272041 C936.332259,16.5780668 934.256354,13.8602309 932.146871,11.211526 C929.134076,7.42709753 927.877208,7.44355729 924.973048,11.2609053 C922.7918,14.1281959 920.623062,17.0448657 918.109985,19.6086382 C915.167638,22.6102404 911.293669,23.0842816 908.027394,20.4731049 C904.750584,17.8533692 901.875393,14.6575418 899.158215,11.4334036 C897.30748,9.23635457 896.160564,8.27642125 894.877361,8.33765156 C891.283865,12.1688258 889.62538,14.0854005 888.183504,16.1461627 C881.993976,24.9843965 875.191485,22.8097328 869.443078,16 C867.893885,14.1637489 866.55011,12.1451237 864.931128,10.3740533 C862.252795,7.44487407 861.510789,7.58313607 859.105689,10.6637451 C856.765111,13.6620554 854.603615,16.8980446 851.817306,19.4288976 C847.59439,23.2666558 843.522903,22.9947405 839.334881,18.9272041 C836.915296,16.5780668 834.839391,13.8602309 832.729908,11.211526 C829.717113,7.42709753 828.460245,7.44355729 825.556085,11.2609053 C823.374837,14.1281959 821.206099,17.0448657 818.693023,19.6086382 C815.750676,22.6102404 811.876706,23.0842816 808.610431,20.4731049 C805.333621,17.8533692 802.45843,14.6575418 799.741253,11.4334036 C797.890517,9.23635457 796.743601,8.27642125 795.460398,8.33765156 C791.866902,12.1688258 790.208417,14.0854005 788.766542,16.1461627 C782.577013,24.9843965 775.774522,22.8097328 770.026115,16 C768.476922,14.1637489 767.133147,12.1451237 765.514165,10.3740533 C762.835832,7.44487407 762.093826,7.58313607 759.688726,10.6637451 C757.348148,13.6620554 755.186652,16.8980446 752.400343,19.4288976 C748.177427,23.2666558 744.10594,22.9947405 739.917918,18.9272041 C737.498333,16.5780668 735.422428,13.8602309 733.312945,11.211526 C730.30015,7.42709753 729.043283,7.44355729 726.139122,11.2609053 C723.957874,14.1281959 721.789136,17.0448657 719.27606,19.6086382 C716.333713,22.6102404 712.459743,23.0842816 709.193468,20.4731049 C705.916658,17.8533692 703.041467,14.6575418 700.32429,11.4334036 C698.473554,9.23635457 697.326638,8.27642125 696.043435,8.33765156 C692.449939,12.1688258 690.791454,14.0854005 689.349579,16.1461627 C683.16005,24.9843965 676.357559,22.8097328 670.609152,16 C669.059959,14.1637489 667.716184,12.1451237 666.097202,10.3740533 C663.41887,7.44487407 662.676863,7.58313607 660.271763,10.6637451 C657.931185,13.6620554 655.769689,16.8980446 652.98338,19.4288976 C648.760464,23.2666558 644.688977,22.9947405 640.500955,18.9272041 C638.08137,16.5780668 636.005465,13.8602309 633.895982,11.211526 C630.883187,7.42709753 629.62632,7.44355729 626.722159,11.2609053 C624.540912,14.1281959 622.372173,17.0448657 619.859097,19.6086382 C616.91675,22.6102404 613.04278,23.0842816 609.776505,20.4731049 C606.499696,17.8533692 603.624504,14.6575418 600.907327,11.4334036 C599.056591,9.23635457 597.909675,8.27642125 596.626472,8.33765156 C593.032977,12.1688258 591.374491,14.0854005 589.932616,16.1461627 C583.743087,24.9843965 576.940596,22.8097328 571.192189,16 C569.642996,14.1637489 568.299221,12.1451237 566.680239,10.3740533 C564.001907,7.44487407 563.259901,7.58313607 560.8548,10.6637451 C558.514222,13.6620554 556.352726,16.8980446 553.566418,19.4288976 C549.343501,23.2666558 545.272014,22.9947405 541.083992,18.9272041 C538.664407,16.5780668 536.588502,13.8602309 534.479019,11.211526 C531.466224,7.42709753 530.209357,7.44355729 527.305196,11.2609053 C525.123949,14.1281959 522.95521,17.0448657 520.442134,19.6086382 C517.499787,22.6102404 513.625817,23.0842816 510.359542,20.4731049 C507.082733,17.8533692 504.207541,14.6575418 501.490364,11.4334036 C499.639628,9.23635457 498.492712,8.27642125 497.209509,8.33765156 C493.616014,12.1688258 491.957528,14.0854005 490.515653,16.1461627 C484.326124,24.9843965 477.523634,22.8097328 471.775226,16 C470.226033,14.1637489 468.882258,12.1451237 467.263276,10.3740533 C464.584944,7.44487407 463.842938,7.58313607 461.437837,10.6637451 C459.097259,13.6620554 456.935763,16.8980446 454.149455,19.4288976 C449.926538,23.2666558 445.855051,22.9947405 441.667029,18.9272041 C439.247444,16.5780668 437.171539,13.8602309 435.062056,11.211526 C432.049261,7.42709753 430.792394,7.44355729 427.888233,11.2609053 C425.706986,14.1281959 423.538248,17.0448657 421.025171,19.6086382 C418.082824,22.6102404 414.208854,23.0842816 410.942579,20.4731049 C407.66577,17.8533692 404.790579,14.6575418 402.073401,11.4334036 C400.222665,9.23635457 399.075749,8.27642125 397.792546,8.33765156 C394.199051,12.1688258 392.540565,14.0854005 391.09869,16.1461627 C384.909161,24.9843965 378.106671,22.8097328 372.358263,16 C370.809071,14.1637489 369.465296,12.1451237 367.846313,10.3740533 C365.167981,7.44487407 364.425975,7.58313607 362.020874,10.6637451 C359.680296,13.6620554 357.5188,16.8980446 354.732492,19.4288976 C350.509575,23.2666558 346.438088,22.9947405 342.250067,18.9272041 C339.830482,16.5780668 337.754576,13.8602309 335.645093,11.211526 C332.632298,7.42709753 331.375431,7.44355729 328.471271,11.2609053 C326.290023,14.1281959 324.121285,17.0448657 321.608208,19.6086382 C318.665861,22.6102404 314.791892,23.0842816 311.525616,20.4731049 C308.248807,17.8533692 305.373616,14.6575418 302.656438,11.4334036 C300.805702,9.23635457 299.658786,8.27642125 298.375583,8.33765156 C294.782088,12.1688258 293.123602,14.0854005 291.681727,16.1461627 C285.492198,24.9843965 278.689708,22.8097328 272.9413,16 C271.392108,14.1637489 270.048333,12.1451237 268.429351,10.3740533 C265.751018,7.44487407 265.009012,7.58313607 262.603912,10.6637451 C260.263333,13.6620554 258.101837,16.8980446 255.315529,19.4288976 C251.092612,23.2666558 247.021126,22.9947405 242.833104,18.9272041 C240.413519,16.5780668 238.337614,13.8602309 236.22813,11.211526 C233.215336,7.42709753 231.958468,7.44355729 229.054308,11.2609053 C226.87306,14.1281959 224.704322,17.0448657 222.191245,19.6086382 C219.248898,22.6102404 215.374929,23.0842816 212.108653,20.4731049 C208.831844,17.8533692 205.956653,14.6575418 203.239475,11.4334036 C201.38874,9.23635457 200.241823,8.27642125 198.95862,8.33765156 C195.365125,12.1688258 193.706639,14.0854005 192.264764,16.1461627 C186.075235,24.9843965 179.272745,22.8097328 173.524338,16 C171.975145,14.1637489 170.63137,12.1451237 169.012388,10.3740533 C166.334055,7.44487407 165.592049,7.58313607 163.186949,10.6637451 C160.84637,13.6620554 158.684875,16.8980446 155.898566,19.4288976 C151.675649,23.2666558 147.604163,22.9947405 143.416141,18.9272041 C140.996556,16.5780668 138.920651,13.8602309 136.811168,11.211526 C133.798373,7.42709753 132.541505,7.44355729 129.637345,11.2609053 C127.456097,14.1281959 125.287359,17.0448657 122.774282,19.6086382 C119.831935,22.6102404 115.957966,23.0842816 112.691691,20.4731049 C109.414881,17.8533692 106.53969,14.6575418 103.822512,11.4334036 C101.971777,9.23635457 100.824861,8.27642125 99.5416575,8.33765156 C95.9481622,12.1688258 94.2896766,14.0854005 92.8478014,16.1461627 C86.6582725,24.9843965 79.8551236,22.8097328 74.1073747,16 C72.5575235,14.1637489 71.2137486,12.1451237 69.5954248,10.3740533 C66.9170923,7.44487407 66.1750862,7.58313607 63.7699858,10.6637451 C61.4294076,13.6620554 59.2679116,16.8980446 56.4816031,19.4288976 C52.2580282,23.2666558 48.1871998,22.9947405 43.999178,18.9272041 C41.5795929,16.5780668 39.5036877,13.8602309 37.394863,11.211526 C34.3814098,7.42709753 33.1245424,7.44355729 30.2203819,11.2609053 C28.0391343,14.1281959 25.870396,17.0448657 23.3573196,19.6086382 C20.4149725,22.6102404 16.5410029,23.0842816 13.2747277,20.4731049 C9.99791827,17.8533692 7.12272703,14.6575418 4.40554951,11.4334036 C2.55481386,9.23635457 1.40789764,8.27642125 0.124694591,8.33765156 L0.124694591,0.0722174439 L1590.7961,0.0992114537 Z" fill="#303F62"></path>
    </g>
</svg>

<svg id="Ebene_1" data-name="Ebene 1" xmlns="http://www.w3.org/2000/svg" viewBox="0 0 1591 23"><defs><style>.cls-1{fill:#303f62;}</style></defs><title>zigzag-border</title><path class="cls-1" d="M1590.8.1V8.34a69.67,69.67,0,0,0-6.7,7.81c-6.19,8.83-13,6.66-18.74-.15-1.55-1.84-2.89-3.85-4.51-5.63-2.68-2.93-3.42-2.79-5.83.29s-4.5,6.24-7.28,8.77c-4.23,3.84-8.3,3.56-12.49-.5a79.94,79.94,0,0,1-6.6-7.72c-3-3.78-4.27-3.77-7.18,0a87.48,87.48,0,0,1-6.86,8.35c-2.94,3-6.81,3.47-10.08.86a64.81,64.81,0,0,1-8.87-9c-1.85-2.19-3-3.15-4.28-3.09a70.4,70.4,0,0,0-6.69,7.81c-6.19,8.83-13,6.66-18.75-.15-1.54-1.84-2.89-3.85-4.51-5.63-2.68-2.93-3.42-2.79-5.82.29s-4.5,6.24-7.29,8.77c-4.22,3.84-8.3,3.56-12.48-.5a80,80,0,0,1-6.61-7.72c-3-3.78-4.27-3.77-7.17,0a86.09,86.09,0,0,1-6.87,8.35c-2.94,3-6.81,3.47-10.08.86a65.37,65.37,0,0,1-8.87-9c-1.85-2.19-3-3.15-4.28-3.09a70.4,70.4,0,0,0-6.69,7.81c-6.19,8.83-13,6.66-18.74-.15-1.55-1.84-2.9-3.85-4.51-5.63-2.68-2.93-3.42-2.79-5.83.29s-4.5,6.24-7.29,8.77c-4.22,3.84-8.29,3.56-12.48-.5a80,80,0,0,1-6.61-7.72c-3-3.78-4.26-3.77-7.17,0a87.48,87.48,0,0,1-6.86,8.35c-2.94,3-6.82,3.47-10.08.86a64.26,64.26,0,0,1-8.87-9c-1.85-2.19-3-3.15-4.28-3.09a69.67,69.67,0,0,0-6.7,7.81c-6.19,8.83-13,6.66-18.74-.15-1.55-1.84-2.89-3.85-4.51-5.63-2.68-2.93-3.42-2.79-5.83.29s-4.5,6.24-7.28,8.77c-4.23,3.84-8.3,3.56-12.49-.5a79.94,79.94,0,0,1-6.6-7.72c-3-3.78-4.27-3.77-7.18,0a87.48,87.48,0,0,1-6.86,8.35c-2.94,3-6.82,3.47-10.08.86a64.81,64.81,0,0,1-8.87-9c-1.85-2.19-3-3.15-4.28-3.09a70.79,70.79,0,0,0-6.7,7.81c-6.19,8.83-13,6.66-18.74-.15-1.55-1.84-2.89-3.85-4.51-5.63-2.68-2.93-3.42-2.79-5.82.29s-4.51,6.24-7.29,8.77c-4.22,3.84-8.3,3.56-12.48-.5a80,80,0,0,1-6.61-7.72c-3-3.78-4.27-3.77-7.17,0a86.09,86.09,0,0,1-6.87,8.35c-2.94,3-6.81,3.47-10.08.86a64.81,64.81,0,0,1-8.87-9c-1.85-2.19-3-3.15-4.28-3.09a70.4,70.4,0,0,0-6.69,7.81c-6.19,8.83-13,6.66-18.74-.15-1.55-1.84-2.9-3.85-4.51-5.63-2.68-2.93-3.43-2.79-5.83.29s-4.5,6.24-7.29,8.77c-4.22,3.84-8.29,3.56-12.48-.5a80,80,0,0,1-6.61-7.72c-3-3.78-4.27-3.77-7.17,0a87.48,87.48,0,0,1-6.86,8.35c-2.95,3-6.82,3.47-10.09.86a64.74,64.74,0,0,1-8.86-9c-1.86-2.19-3-3.15-4.29-3.09a70.4,70.4,0,0,0-6.69,7.81c-6.19,8.83-13,6.66-18.74-.15-1.55-1.84-2.89-3.85-4.51-5.63-2.68-2.93-3.42-2.79-5.83.29s-4.5,6.24-7.29,8.77c-4.22,3.84-8.29,3.56-12.48-.5a79.94,79.94,0,0,1-6.6-7.72c-3-3.78-4.27-3.77-7.18,0a87.48,87.48,0,0,1-6.86,8.35c-2.94,3-6.82,3.47-10.08.86a64.81,64.81,0,0,1-8.87-9c-1.85-2.19-3-3.15-4.28-3.09a70.79,70.79,0,0,0-6.7,7.81c-6.19,8.83-13,6.66-18.74-.15-1.55-1.84-2.89-3.85-4.51-5.63-2.68-2.93-3.42-2.79-5.82.29s-4.51,6.24-7.29,8.77c-4.23,3.84-8.3,3.56-12.49-.5a81.38,81.38,0,0,1-6.6-7.72c-3-3.78-4.27-3.77-7.17,0a87.58,87.58,0,0,1-6.87,8.35c-2.94,3-6.81,3.47-10.08.86a64.81,64.81,0,0,1-8.87-9c-1.85-2.19-3-3.15-4.28-3.09a70.4,70.4,0,0,0-6.69,7.81c-6.19,8.83-13,6.66-18.74-.15-1.55-1.84-2.9-3.85-4.52-5.63-2.67-2.93-3.42-2.79-5.82.29s-4.5,6.24-7.29,8.77c-4.22,3.84-8.29,3.56-12.48-.5a80,80,0,0,1-6.61-7.72c-3-3.78-4.27-3.77-7.17,0a87.48,87.48,0,0,1-6.86,8.35c-2.95,3-6.82,3.47-10.09.86a65.37,65.37,0,0,1-8.87-9c-1.85-2.19-3-3.15-4.28-3.09a70.4,70.4,0,0,0-6.69,7.81c-6.19,8.83-13,6.66-18.74-.15-1.55-1.84-2.89-3.85-4.51-5.63-2.68-2.93-3.42-2.79-5.83.29s-4.5,6.24-7.29,8.77c-4.22,3.84-8.29,3.56-12.48-.5a79.94,79.94,0,0,1-6.6-7.72c-3-3.78-4.27-3.77-7.18,0a87.48,87.48,0,0,1-6.86,8.35c-2.94,3-6.82,3.47-10.08.86a64.26,64.26,0,0,1-8.87-9c-1.85-2.19-3-3.15-4.28-3.09a69.67,69.67,0,0,0-6.7,7.81c-6.19,8.83-13,6.66-18.74-.15-1.55-1.84-2.89-3.85-4.51-5.63-2.68-2.93-3.42-2.79-5.83.29s-4.5,6.24-7.28,8.77c-4.23,3.84-8.3,3.56-12.49-.5a79.94,79.94,0,0,1-6.6-7.72c-3-3.78-4.27-3.77-7.17,0a87.58,87.58,0,0,1-6.87,8.35c-2.94,3-6.81,3.47-10.08.86a64.81,64.81,0,0,1-8.87-9c-1.85-2.19-3-3.15-4.28-3.09a70.4,70.4,0,0,0-6.69,7.81c-6.19,8.83-13,6.66-18.74-.15-1.55-1.84-2.9-3.85-4.52-5.63-2.68-2.93-3.42-2.79-5.82.29s-4.5,6.24-7.29,8.77c-4.22,3.84-8.29,3.56-12.48-.5a80,80,0,0,1-6.61-7.72c-3-3.78-4.27-3.77-7.17,0A87.48,87.48,0,0,1,421,19.61c-2.95,3-6.82,3.47-10.09.86a65.37,65.37,0,0,1-8.87-9c-1.85-2.19-3-3.15-4.28-3.09a70.4,70.4,0,0,0-6.69,7.81c-6.19,8.83-13,6.66-18.74-.15-1.55-1.84-2.89-3.85-4.51-5.63-2.68-2.93-3.42-2.79-5.83.29s-4.5,6.24-7.29,8.77c-4.22,3.84-8.29,3.56-12.48-.5a78.56,78.56,0,0,1-6.6-7.72c-3-3.78-4.27-3.77-7.18,0a87.48,87.48,0,0,1-6.86,8.35c-2.94,3-6.82,3.47-10.08.86a64.26,64.26,0,0,1-8.87-9c-1.85-2.19-3-3.15-4.28-3.09a69.67,69.67,0,0,0-6.7,7.81c-6.19,8.83-13,6.66-18.74-.15-1.55-1.84-2.89-3.85-4.51-5.63-2.68-2.93-3.42-2.79-5.83.29s-4.5,6.24-7.28,8.77c-4.23,3.84-8.3,3.56-12.49-.5a79.94,79.94,0,0,1-6.6-7.72c-3-3.78-4.27-3.77-7.18,0a87.48,87.48,0,0,1-6.86,8.35c-2.94,3-6.82,3.47-10.08.86a64.81,64.81,0,0,1-8.87-9c-1.85-2.19-3-3.15-4.28-3.09a71.94,71.94,0,0,0-6.7,7.81c-6.18,8.83-13,6.66-18.74-.15-1.54-1.84-2.89-3.85-4.51-5.63-2.68-2.93-3.42-2.79-5.82.29s-4.51,6.24-7.29,8.77c-4.22,3.84-8.3,3.56-12.48-.5a80,80,0,0,1-6.61-7.72c-3-3.78-4.27-3.77-7.17,0a86.09,86.09,0,0,1-6.87,8.35c-2.94,3-6.81,3.47-10.08.86a64.81,64.81,0,0,1-8.87-9c-1.85-2.19-3-3.15-4.28-3.09a70.4,70.4,0,0,0-6.69,7.81c-6.19,8.83-13,6.66-18.74-.15-1.55-1.84-2.9-3.85-4.51-5.63-2.68-2.93-3.42-2.79-5.83.29s-4.5,6.24-7.29,8.77C52.26,23.27,48.19,23,44,18.93a80,80,0,0,1-6.61-7.72c-3-3.78-4.27-3.77-7.17,0a87.48,87.48,0,0,1-6.86,8.35c-2.95,3-6.82,3.47-10.09.86a64.74,64.74,0,0,1-8.86-9C2.55,9.24,1.41,8.28.12,8.34V.07Z"/></svg>
